X:2
T:Valzer
T:John Malchair's Third Collection of Tunes
%%VWML:Malchair-3619-p2
F:https://www.vwml.org/record/Malchair/3619/p2
F:www.vwml.org/topics/historic-dance-and-tune-books/Malchair
Z:David Jacobs Jan 2020
M:3/8
L:1/8
K:D
dAd|fdf|afa|d'2d'|d'/c'/b/g/b/c'/|d'/c'/b/g/b/c'/|d'fe|d2||
f|eef|ggf|eef|{a}g2d'|d'/c'/b/g/b/c'|d'/c'/b/g/b/c'/|d'fe|d2||
a|^gea|fda|^gea|f2a|^gea|fda|=gfe|d2||
A|d(d/c/)d|e2A|e(e/d/)e|f2A|dd/c/d|eba|gfe|d2||
a|a2g|f2e|def|eAa|a2g|f2e|gfe|d2A|
dd/c/d|e2A|ee/d/e|f2A|dd/c/d|eba|gfe|d3:|]
W:
T:Sigget & Foot
T:John Malchair's Third Collection of Tunes
F:https://www.vwml.org/record/Malchair/3619/p1
F:www.vwml.org/topics/historic-dance-and-tune-books/Malchair
Z:David Jacobs Jan 2020
M:6/8
L:1/8
K:D
g2 e e a2|A2B c2A|g2f eA2|A2B c2A|edc dcB|A2B c2A|edc fga|A2B c2A|]

